X:0
T:The Campbells are Comin'
G:song or jig
S:222 Popular Scottish Songs with Music (1868)
N:this tune has probably the most complicated history and the most
N:alternate titles of anything in Scottish musical tradition
M:6/8
L:1/8
Q:3/8=120
K:D
D|FAB  AFD |F2F  F2E|FAB AFD |E2E E2D|
  FAB  AFD |F>GF def|dBd AFD |F2F F2||
A|d2d  d>ef|A2A  AFD|d2d d>ef|B2B B2A|
  A>Bc d>cB|A>Bc def|dBd AFD |F2F F2|]

The fifth is also common; this old Lowland song (here in an 18th
century dance arrangement) is really in D major, but ends on A:

